X: 2
T: The Wicklow March v.2
P: piffero secondo a0903
O: Dan Moylan
%R: jig, march
F: http://ancients.sudburymuster.org/mus/sng/pdf/wicklowmarchC0.pdf
Z: 2020 John Chambers <jc:trillian.mit.edu>
M: 6/8
L: 1/8
K: D
A |\
AGF FGG | GEE D3 | DEE GAB | DDE F3 |\
AGF FGG | GEE D3 | DEE GAB | A3  A2 :|
|: e |\
dAd dAA | GEc c3 | dAd dAA | GEc c3 ||\
dAd dAA | GED D3 | DEF GGF | F3  F2 :|

% %sep 1 1 200
% %center - - - - - - - - - -
% Whatever we want at the bottom of each set belongs here.
